Icons/com_tencent_mm.svg

<svg viewBox="0 0 48 48" xmlns:xlink="http://www.w3.org/1999/xlink">
 <defs>
  <linearGradient id="0">
   <stop stop-opacity="0"/>
   <stop offset="1"/>
  </linearGradient>
  <linearGradient xlink:href="#0" id="1" gradientUnits="userSpaceOnUse" gradientTransform="translate(4e-7,-48)" y1="47" x2="0" y2="1"/>
  <clipPath id="2">
   <g transform="translate(0,-1004.3622)">
    <rect rx="4" y="1005.36" x="1" height="46" width="46" fill="#1890d0"/>
   </g>
  </clipPath>
  <clipPath id="3">
   <g transform="translate(0,-1004.3622)">
    <rect rx="4" y="1005.36" x="1" height="46" width="46" fill="#1890d0"/>
   </g>
  </clipPath>
 </defs>
 <g>
  <g transform="translate(0,-1004.3622)">
   <path d="m 5,1006.3622 c -2.216,0 -4,1.784 -4,4 l 0,37.25 c 0,2.216 1.784,4 4,4 l 38,0 c 2.216,0 4,-1.784 4,-4 l 0,-37.25 c 0,-2.216 -1.784,-4 -4,-4 l -38,0 z m -4,41.5 0,0.5 c 0,2.216 1.784,4 4,4 l 38,0 c 2.216,0 4,-1.784 4,-4 l 0,-0.5 c 0,2.216 -1.784,4 -4,4 l -38,0 c -2.216,0 -4,-1.784 -4,-4 z" opacity="0.02"/>
   <path d="m 1,1047.6122 0,0.25 c 0,2.216 1.784,4 4,4 l 38,0 c 2.216,0 4,-1.784 4,-4 l 0,-0.25 c 0,2.216 -1.784,4 -4,4 l -38,0 c -2.216,0 -4,-1.784 -4,-4 z" opacity="0.05"/>
   <rect width="46" height="46" x="1" y="1005.61" rx="4" opacity="0.1"/>
  </g>
 </g>
 <g>
  <g transform="translate(0,-1004.3622)">
   <rect rx="4" y="1005.36" x="1" height="46" width="46" fill="#e0f5f8"/>
  </g>
 </g>
 <g>
  <rect transform="scale(1,-1)" width="46" height="46" x="1" y="-46.998" rx="4" opacity="0.1" fill="url(#1)"/>
 </g>
 <g>
  <g clip-path="url(#2)">
   <g opacity="0.1">
    <g>
     <path d="M 19.21875 15 C 17.058594 14.949219 14.96875 15.664062 13.421875 16.980469 C 11.871094 18.300781 11 20.109375 11 22 C 11.007812 23.648438 11.683594 25.242188 12.90625 26.5 L 12 31 L 15.5625 28.3125 C 18.039062 29.34375 20.949219 29.191406 23.269531 27.914062 C 25.589844 26.632812 26.996094 24.398438 27 22 C 27 18.207031 23.550781 15.105469 19.21875 15 Z M 19.21875 15 "/>
     <path d="M 30.5625 19 C 27.421875 19.191406 24.992188 21.375 25 24 C 25 25.617188 25.941406 27.132812 27.523438 28.070312 C 29.105469 29.007812 31.136719 29.25 32.96875 28.71875 L 36 31 L 35.3125 27.5 C 36.402344 26.5625 37.007812 25.304688 37 24 C 37.003906 22.609375 36.3125 21.277344 35.089844 20.328125 C 33.871094 19.378906 32.226562 18.898438 30.5625 19 Z M 30.5625 19 "/>
     <path d="M 17 19.5 C 17 20.328125 16.328125 21 15.5 21 C 14.671875 21 14 20.328125 14 19.5 C 14 18.671875 14.671875 18 15.5 18 C 16.328125 18 17 18.671875 17 19.5 Z M 17 19.5 "/>
     <path d="M 23 19.5 C 23 20.328125 22.328125 21 21.5 21 C 20.671875 21 20 20.328125 20 19.5 C 20 18.671875 20.671875 18 21.5 18 C 22.328125 18 23 18.671875 23 19.5 Z M 23 19.5 "/>
     <path d="M 30 22 C 30 22.550781 29.550781 23 29 23 C 28.449219 23 28 22.550781 28 22 C 28 21.449219 28.449219 21 29 21 C 29.550781 21 30 21.449219 30 22 Z M 30 22 "/>
     <path d="M 34 22 C 34 22.550781 33.550781 23 33 23 C 32.449219 23 32 22.550781 32 22 C 32 21.449219 32.449219 21 33 21 C 33.550781 21 34 21.449219 34 22 Z M 34 22 "/>
    </g>
   </g>
  </g>
 </g>
 <g>
  <g clip-path="url(#3)">
   <g transform="translate(0,-1)">
    <g>
     <path d="M 19.21875 15 C 17.058594 14.949219 14.96875 15.664062 13.421875 16.980469 C 11.871094 18.300781 11 20.109375 11 22 C 11.007812 23.648438 11.683594 25.242188 12.90625 26.5 L 12 31 L 15.5625 28.3125 C 18.039062 29.34375 20.949219 29.191406 23.269531 27.914062 C 25.589844 26.632812 26.996094 24.398438 27 22 C 27 18.207031 23.550781 15.105469 19.21875 15 Z M 19.21875 15 " fill="#95b9ed"/>
     <path d="M 30.5625 19 C 27.421875 19.191406 24.992188 21.375 25 24 C 25 25.617188 25.941406 27.132812 27.523438 28.070312 C 29.105469 29.007812 31.136719 29.25 32.96875 28.71875 L 36 31 L 35.3125 27.5 C 36.402344 26.5625 37.007812 25.304688 37 24 C 37.003906 22.609375 36.3125 21.277344 35.089844 20.328125 C 33.871094 19.378906 32.226562 18.898438 30.5625 19 Z M 30.5625 19 " fill="#a2c1e5"/>
     <path d="M 17 19.5 C 17 20.328125 16.328125 21 15.5 21 C 14.671875 21 14 20.328125 14 19.5 C 14 18.671875 14.671875 18 15.5 18 C 16.328125 18 17 18.671875 17 19.5 Z M 17 19.5 " fill="#353535"/>
     <path d="M 23 19.5 C 23 20.328125 22.328125 21 21.5 21 C 20.671875 21 20 20.328125 20 19.5 C 20 18.671875 20.671875 18 21.5 18 C 22.328125 18 23 18.671875 23 19.5 Z M 23 19.5 " fill="#353535"/>
     <path d="M 30 22 C 30 22.550781 29.550781 23 29 23 C 28.449219 23 28 22.550781 28 22 C 28 21.449219 28.449219 21 29 21 C 29.550781 21 30 21.449219 30 22 Z M 30 22 " fill="#353535"/>
     <path d="M 34 22 C 34 22.550781 33.550781 23 33 23 C 32.449219 23 32 22.550781 32 22 C 32 21.449219 32.449219 21 33 21 C 33.550781 21 34 21.449219 34 22 Z M 34 22 " fill="#353535"/>
    </g>
   </g>
  </g>
 </g>
 <g>
  <g transform="translate(0,-1004.3622)">
   <path d="m 1,1043.3622 0,4 c 0,2.216 1.784,4 4,4 l 38,0 c 2.216,0 4,-1.784 4,-4 l 0,-4 c 0,2.216 -1.784,4 -4,4 l -38,0 c -2.216,0 -4,-1.784 -4,-4 z" opacity="0.1"/>
  </g>
 </g>
</svg>

<svg viewBox="0 0 48 48"><defs><linearGradient id="linearGradient3764" x1="1" x2="47" gradientUnits="userSpaceOnUse" gradientTransform="translate(-48.000001,0.00221467)"><stop stop-color="#d0f0f4" stop-opacity="1"/><stop offset="1" stop-color="#e0f5f8" stop-opacity="1"/></linearGradient><clipPath id="clipPath-723357925"><g transform="translate(0,-1004.3622)"><rect rx="4" y="1005.36" x="1" height="46" width="46" fill="#1890d0"/></g></clipPath><clipPath id="clipPath-736143262"><g transform="translate(0,-1004.3622)"><rect rx="4" y="1005.36" x="1" height="46" width="46" fill="#1890d0"/></g></clipPath></defs><g><path d="m 1 43 l 0 0.25 c 0 2.216 1.784 4 4 4 l 38 0 c 2.216 0 4 -1.784 4 -4 l 0 -0.25 c 0 2.216 -1.784 4 -4 4 l -38 0 c -2.216 0 -4 -1.784 -4 -4 z m 0 0.5 l 0 0.5 c 0 2.216 1.784 4 4 4 l 38 0 c 2.216 0 4 -1.784 4 -4 l 0 -0.5 c 0 2.216 -1.784 4 -4 4 l -38 0 c -2.216 0 -4 -1.784 -4 -4 z" opacity="0.02"/><path d="m 1 43.25 l 0 0.25 c 0 2.216 1.784 4 4 4 l 38 0 c 2.216 0 4 -1.784 4 -4 l 0 -0.25 c 0 2.216 -1.784 4 -4 4 l -38 0 c -2.216 0 -4 -1.784 -4 -4 z" opacity="0.05"/><path d="m 1 43 l 0 0.25 c 0 2.216 1.784 4 4 4 l 38 0 c 2.216 0 4 -1.784 4 -4 l 0 -0.25 c 0 2.216 -1.784 4 -4 4 l -38 0 c -2.216 0 -4 -1.784 -4 -4 z" opacity="0.1"/></g><g><rect width="46" height="46" x="-47" y="1" rx="4" transform="matrix(0,-1,1,0,0,0)" fill="url(#linearGradient3764)" fill-opacity="1"/></g><g><g clip-path="url(#clipPath-723357925)"><g opacity="0.1"><!-- color: #e0f5f8 --><g><path d="m 19.219 15 c -2.16 -0.051 -4.25 0.664 -5.797 1.98 c -1.551 1.32 -2.422 3.129 -2.422 5.02 c 0.008 1.648 0.684 3.242 1.906 4.5 l -0.906 4.5 l 3.563 -2.688 c 2.477 1.031 5.387 0.879 7.707 -0.398 c 2.32 -1.281 3.727 -3.516 3.73 -5.914 c 0 -3.793 -3.449 -6.895 -7.781 -7 m 0 0" fill="#000"/><path d="m 30.563 19 c -3.141 0.191 -5.57 2.375 -5.563 5 c 0 1.617 0.941 3.133 2.523 4.07 c 1.582 0.938 3.613 1.18 5.445 0.648 l 3.03 2.281 l -0.688 -3.5 c 1.09 -0.938 1.695 -2.195 1.688 -3.5 c 0.004 -1.391 -0.688 -2.723 -1.91 -3.672 c -1.219 -0.949 -2.863 -1.43 -4.527 -1.328 m 0 0" fill="#000"/><path d="m 17 19.5 c 0 0.828 -0.672 1.5 -1.5 1.5 c -0.828 0 -1.5 -0.672 -1.5 -1.5 c 0 -0.828 0.672 -1.5 1.5 -1.5 c 0.828 0 1.5 0.672 1.5 1.5 m 0 0" fill="#000"/><path d="m 23 19.5 c 0 0.828 -0.672 1.5 -1.5 1.5 c -0.828 0 -1.5 -0.672 -1.5 -1.5 c 0 -0.828 0.672 -1.5 1.5 -1.5 c 0.828 0 1.5 0.672 1.5 1.5 m 0 0" fill="#000"/><path d="m 30 22 c 0 0.551 -0.449 1 -1 1 c -0.551 0 -1 -0.449 -1 -1 c 0 -0.551 0.449 -1 1 -1 c 0.551 0 1 0.449 1 1 m 0 0" fill="#000"/><path d="m 34 22 c 0 0.551 -0.449 1 -1 1 c -0.551 0 -1 -0.449 -1 -1 c 0 -0.551 0.449 -1 1 -1 c 0.551 0 1 0.449 1 1 m 0 0" fill="#000"/></g></g></g></g><g><g clip-path="url(#clipPath-736143262)"><g transform="translate(0,-1)"><!-- color: #e0f5f8 --><g><path d="m 19.219 15 c -2.16 -0.051 -4.25 0.664 -5.797 1.98 c -1.551 1.32 -2.422 3.129 -2.422 5.02 c 0.008 1.648 0.684 3.242 1.906 4.5 l -0.906 4.5 l 3.563 -2.688 c 2.477 1.031 5.387 0.879 7.707 -0.398 c 2.32 -1.281 3.727 -3.516 3.73 -5.914 c 0 -3.793 -3.449 -6.895 -7.781 -7 m 0 0" fill="#95b9ed"/><path d="m 30.563 19 c -3.141 0.191 -5.57 2.375 -5.563 5 c 0 1.617 0.941 3.133 2.523 4.07 c 1.582 0.938 3.613 1.18 5.445 0.648 l 3.03 2.281 l -0.688 -3.5 c 1.09 -0.938 1.695 -2.195 1.688 -3.5 c 0.004 -1.391 -0.688 -2.723 -1.91 -3.672 c -1.219 -0.949 -2.863 -1.43 -4.527 -1.328 m 0 0" fill="#a2c1e5"/><path d="m 17 19.5 c 0 0.828 -0.672 1.5 -1.5 1.5 c -0.828 0 -1.5 -0.672 -1.5 -1.5 c 0 -0.828 0.672 -1.5 1.5 -1.5 c 0.828 0 1.5 0.672 1.5 1.5 m 0 0" fill="#353535"/><path d="m 23 19.5 c 0 0.828 -0.672 1.5 -1.5 1.5 c -0.828 0 -1.5 -0.672 -1.5 -1.5 c 0 -0.828 0.672 -1.5 1.5 -1.5 c 0.828 0 1.5 0.672 1.5 1.5 m 0 0" fill="#353535"/><path d="m 30 22 c 0 0.551 -0.449 1 -1 1 c -0.551 0 -1 -0.449 -1 -1 c 0 -0.551 0.449 -1 1 -1 c 0.551 0 1 0.449 1 1 m 0 0" fill="#353535"/><path d="m 34 22 c 0 0.551 -0.449 1 -1 1 c -0.551 0 -1 -0.449 -1 -1 c 0 -0.551 0.449 -1 1 -1 c 0.551 0 1 0.449 1 1 m 0 0" fill="#353535"/></g></g></g></g><g><g transform="translate(0,-1004.3622)"><path d="m 1 1043.36 0 4 c 0 2.216 1.784 4 4 4 l 38 0 c 2.216 0 4 -1.784 4 -4 l 0 -4 c 0 2.216 -1.784 4 -4 4 l -38 0 c -2.216 0 -4 -1.784 -4 -4 z" opacity="0.1"/></g></g></svg>
